X: 1
T:The Meeting of the Waters Harmony 1
M:4/4
L:1/4
K:A
CC|"A"E2EA|"A"C2E>E|"D"DFDA,|"A"C2EG|"A"AcCc|"A"BGGF|"Bm"A3B/A/|"E7"G2EF|
"A"E2EA|"A"C2E>E|"D"DFDA,|"A"C2E>G|"Bm"AcBA|"E7"BDEG|"A"E2EE|E2||
e>d|"A"A2c>B|EAEE|"D"DFDA,|"E7"D2G>E|"A"AcCc|AAGF|"F#m"A2>BA/|"E7"G2B>G|
"A"A2c>B|EAEE|"D"DFDA,|"A"C2E>G|"Bm"FGFC|"E7"BDEG|"A"E2E>E|E2|]
